X:1
T:Morning Light
T:Solomon W. Straub, 1880
T:Morning Light
T:Public Domain
T:Public Domain
C:Solomon W. Straub, 1880
Z:Public Domain
%%score ( 1 2 ) ( 3 4 )
L:1/8
M:4/4
K:A
V:1 treble 
V:2 treble 
V:3 bass 
V:4 bass 
V:1
 A3 E CEAB | c2 (A2 a=gfe) | [Fd]3 [Fd] [Fd][Fd][Ec][Ec] | ([EB]4 edcB) | A3 E CEAB | %5
w: 1.~Wide the gates of morn- ing|land and * * * *|ly, gent- ly pass- ing thro’|them * * * *|Comes the morn- ing light to|
w: 2.~Bless- èd are the beams of|gates a- * * * *|the love of ag- es dwell-|ing, * * * *|Shines up- on us from a-|
w: 3.~So we wan- der, lone and|bet- ter * * * *|we feel that God is near|us, * * * *|When we see the heav’n- ly|
 c2 (A2 fe^dc) | [GB]3 [Ac] [GB][FA][EG][^DF] | E6 ||[M:2/4]"^Refrain" [EA] | %9
w: ||||
w: light; The * * * *|is that light; He says it|to-|as|
w: ||||
 [Ac]2 [Ac]([Ac][GB])[Ac] | [ce]3- [ce]2 [EA] | [Ac]2 [Ac]([Ac][GB])[Ac] | [ce]3- [ce]2 [CE] | %13
w: ||||
w: He said it * of|old, * “I|am the light * of|the * world.”|
w: ||||
 [DF][DF] [DF][FA][EG][DF] | [DF][CE] [CE] [CE]2 [EA] | ([Ac][GB]) [Ac][Ge][Gd][EB] | [EA]6 |] %17
w: ||||
w: ||||
w: ||||
V:2
 A3 E CEAB | c2 A2 x4 | x8 | x8 | A3 E CEAB | c2 A2 x4 | x8 | E6 ||[M:2/4] x | x6 | x6 | x6 | x6 | %13
w: o- pen, Spread- ing far o’er|sea, Soft-|||me. * * * * *|||||||||
w: glo- ry, Stream- ing thro’ the|jar, Where|||far. O bless- èd morn- ing|Sav- ior||day||||||
w: help- less, Hop- ing for a|day; But|||ray. * * * * *|||||||||
 x6 | x6 | x6 | x6 |] %17
w: ||||
w: ||||
w: ||||
V:3
 A,3 E, C,E,A,B, | C2 A,2 z4 | [D,A,]3 [D,A,] [D,A,][D,A,]A,A, | [E,G,]4 z4 | A,3 E, C,E,A,B, | %5
 C2 A,2 z4 | B,3 B, [B,,B,][B,,B,][B,,B,][B,,A,] | [E,G,]6 ||[M:2/4] [A,C] | A,2 A, A,2 A, | %10
 A,3- A,2 [A,C] | A,2 A, A,2 A, | A,3- A,2 [A,,A,] | [D,A,][D,A,] [D,A,][D,A,][D,A,][D,A,] | %14
 [A,,A,][A,,A,] [A,,A,] [A,,A,]2 [A,C] | A,2 A,[E,B,][E,B,][E,D] | [A,,C]6 |] %17
V:4
 A,3 E, C,E,A,B, | C2 A,2 x4 | x6 A,A, | x8 | A,3 E, C,E,A,B, | C2 A,2 x4 | B,3 B, x4 | x6 || %8
[M:2/4] x | A,2 A, A,2 A, | A,3- A,2 x | A,2 A, A,2 A, | A,3- A,2 x | x6 | x6 | A,2 A, x3 | x6 |] %17

